image/forbes.svg

<svg width="110" height="50" viewBox="0 0 110 50" fill="none" xmlns="http://www.w3.org/2000/svg">
<path d="M52.7456 18.1592C51.839 18.1592 51.3422 18.2476 50.6105 18.601C49.265 19.2173 48.2715 20.215 47.3938 21.8301L47.1009 22.3301L47.1298 21.4196C47.1599 20.9196 47.1877 20.0092 47.2178 19.3638L47.2468 18.2185H47.0418C46.8079 18.2185 39.0871 19.7743 38.8532 19.8627C38.7073 19.9208 38.6783 19.9801 38.6783 20.3627C38.6783 20.7441 38.7073 20.8022 38.8532 20.8324C38.9412 20.8615 39.2932 20.9196 39.6429 20.9789C40.3156 21.0964 40.5206 21.2138 40.8123 21.5952C41.3392 22.2708 41.4272 23.5045 41.4272 28.6441C41.4272 32.8441 41.3392 34.958 41.1354 35.6045C40.9003 36.3976 40.4615 36.8092 39.7019 36.9557C39.468 37.0138 39.1461 37.0731 39.0002 37.1034L38.7362 37.1615L38.7073 37.6906C38.6783 38.072 38.7073 38.2487 38.7953 38.3069C38.8532 38.3359 41.4862 38.365 44.6438 38.365L50.4055 38.3359L50.4356 37.7196C50.4356 37.3964 50.4356 37.1034 50.4055 37.1034C49.9667 37.1034 48.5922 36.9266 48.3583 36.8092C47.7146 36.5452 47.3938 35.9569 47.2468 34.7534C47.1009 33.3731 46.9839 29.8778 47.0418 27.058C47.1009 24.1801 47.1009 24.1801 47.2769 23.9743C47.6856 23.5336 48.7393 23.1813 49.7038 23.1813C50.4646 23.1813 51.2542 23.3871 52.0729 23.7685C52.4816 23.9743 52.8336 24.0917 52.8915 24.0917C53.0085 24.0627 54.8808 19.0406 54.8808 18.8057C54.8808 18.5115 53.7981 18.1592 52.7456 18.1592Z" fill="black"/>
<path d="M38.705 26.8839C38.2962 23.4188 36.8338 20.8932 34.4057 19.4537C31.7159 17.8676 27.6505 17.7793 24.7546 19.2479C22.6496 20.306 20.9533 22.3316 20.1925 24.6816C19.4029 27.0897 19.4029 30.2618 20.1925 32.699C20.6904 34.2851 21.362 35.4316 22.4157 36.4583C23.6732 37.7211 25.3104 38.5142 27.2117 38.7793C27.8833 38.8665 30.0196 38.8665 30.7201 38.7793C31.0432 38.7211 31.6279 38.6025 31.9788 38.5142C35.4003 37.5165 37.7404 34.8723 38.5301 31.113C38.7339 30.1735 38.8219 27.9409 38.705 26.8839ZM30.0485 37.2816C27.9134 37.927 26.3931 35.8711 25.8072 31.613C25.6034 30.2328 25.6323 26.4735 25.8072 24.9165C26.2171 21.4804 27.2696 19.7479 28.937 19.7479C29.6977 19.7479 30.1064 19.9235 30.6912 20.5107C32.0957 21.9211 32.7395 24.6223 32.7395 28.8525C32.7395 32.2293 32.3887 34.3444 31.6569 35.7828C31.2771 36.4583 30.6043 37.1049 30.0485 37.2816Z" fill="black"/>
<path d="M10.6295 13.0793H13.0866C15.8933 13.0793 16.3611 13.1374 17.3557 13.6374C18.7892 14.3421 19.8417 15.7525 20.7773 18.2188C21.1582 19.2177 21.1582 19.2177 21.9769 18.9537L22.5327 18.777L22.4748 15.1642C22.4447 13.1677 22.4157 11.4049 22.3868 11.2584L22.3277 10.9351L11.594 10.906C5.68644 10.906 0.74455 10.906 0.597498 10.9351L0.334656 10.9932L0.363603 11.6398L0.393708 12.2863L1.21234 12.3746C2.26602 12.4909 2.90866 12.8153 3.28844 13.3432C4.13718 14.577 4.28308 16.2804 4.28308 24.2979C4.28308 32.8444 4.10708 34.9304 3.28844 35.9874C2.87855 36.5456 2.52771 36.7223 1.56318 36.8979C0.305708 37.1328 0.363603 37.1037 0.363603 37.7502C0.363603 38.1025 0.393708 38.3084 0.451603 38.3374C0.597498 38.3956 14.3139 38.3956 14.461 38.3374C14.6358 38.2793 14.6358 37.2502 14.461 37.163C14.1223 37.0821 13.7809 37.0134 13.4374 36.9572C12.9395 36.8688 12.4127 36.7514 12.2378 36.6921C11.3312 36.3107 10.8344 35.2235 10.6584 33.256C10.5126 31.8467 10.4246 29.2328 10.4246 27.3235V25.5618L11.2721 25.5909C13.0564 25.6491 13.9631 25.7374 14.344 25.9142C15.1627 26.2665 15.8053 27.2653 16.1272 28.6746L16.3032 29.4084L16.947 29.4386L17.5896 29.4677V20.0688L16.9458 20.0991L16.3032 20.1281L16.1272 20.8618C15.7763 22.3014 15.1916 23.1828 14.3139 23.5944C13.9631 23.7688 13.7002 23.7991 12.8816 23.8584C12.3258 23.8874 11.5361 23.9165 11.1563 23.9165H10.4246V21.5967C10.4246 19.2758 10.5415 14.313 10.6295 13.5502V13.0793ZM108.05 29.6409C107.406 28.32 106.178 27.4386 103.662 26.3816C101.616 25.5293 100.563 24.913 99.9483 24.2374C99.4227 23.6793 99.2768 23.2095 99.3347 22.3874C99.3925 21.6235 99.5685 21.1537 100.065 20.6246C100.679 19.9502 101.557 19.7142 102.58 19.9502C104.248 20.3014 105.33 21.477 106.266 23.9432C106.588 24.8246 106.646 24.8549 107.23 24.6188L107.611 24.4723V23.4444C107.611 22.8863 107.581 21.7118 107.553 20.8304L107.494 19.2444L107.201 19.1281C105.651 18.4816 102.727 18.07 100.826 18.2456C98.6608 18.4514 97.0536 19.127 95.8239 20.42C94.5965 21.6828 94.0408 23.1804 94.1577 24.9432C94.2457 26.4107 94.6556 27.4386 95.5622 28.3781C96.3809 29.2304 97.0825 29.6409 99.1008 30.4339C102.317 31.6979 103.195 32.4607 103.165 34.0177C103.165 35.3397 102.463 36.3084 101.206 36.7491C100.738 36.8956 99.5975 36.8956 98.9827 36.7491C97.3755 36.3374 96.1458 34.9281 95.0933 32.3432L94.8304 31.6688L94.5086 31.6967C94.3337 31.6967 94.0998 31.756 93.9829 31.8153L93.7779 31.9316L93.8069 33.0781C93.8069 33.6944 93.8358 35.0165 93.8648 35.9851L93.9238 37.7758L94.2747 37.9235C95.0064 38.2467 97.2284 38.7165 98.6029 38.863C98.7789 38.8932 99.7144 38.8932 100.709 38.863C102.405 38.8339 102.551 38.8339 103.4 38.5991C105.944 37.9246 107.582 36.5142 108.313 34.37C108.547 33.6956 108.576 33.5188 108.605 32.52C108.576 31.1688 108.46 30.4932 108.05 29.6409ZM88.4238 18.9537C86.2887 17.8677 82.984 17.956 80.5849 19.1304C78.3038 20.2467 76.7256 22.1258 75.8491 24.77C75.3801 26.1502 75.2342 27.2363 75.2933 29.0281C75.3222 30.1444 75.3801 30.7316 75.4971 31.2607C76.4037 35.313 79.1525 38.0444 83.013 38.7491C83.8617 38.8967 85.7919 38.8967 86.6395 38.7491C87.868 38.5444 89.2714 37.9863 90.178 37.3688C91.2607 36.6351 92.3722 35.5188 92.3722 35.1665C92.3722 34.9607 91.9913 34.4618 91.8454 34.4618C91.7875 34.4618 91.4656 34.6084 91.1738 34.8142C90.1201 35.5188 89.0965 35.7828 87.6631 35.7828C85.7039 35.7828 84.4754 35.2828 83.2179 34.0211C82.6621 33.463 82.4282 33.1688 82.1642 32.6118C81.5505 31.4072 81.1997 29.9979 81.1418 28.4118L81.1129 27.7363L86.8734 27.706L92.6351 27.677L92.664 27.2956C92.664 27.0898 92.664 26.5316 92.6061 26.0328C92.2553 22.5956 90.823 20.1874 88.4238 18.9549V18.9537ZM82.6332 26.0909L81.1708 26.1211V25.7979C81.1708 25.6211 81.2287 25.1514 81.2877 24.77C81.7856 21.627 82.9551 19.7467 84.4175 19.7467C85.7618 19.7467 86.5816 21.5979 86.7564 25.0049L86.8143 25.9735L85.47 26.0316C84.7093 26.0316 83.4229 26.0618 82.6332 26.0909ZM67.5701 18.6002C67.1023 18.513 66.6924 18.4839 65.8159 18.513C64.4704 18.5711 63.5638 18.7479 62.5391 19.2177C62.2183 19.3642 61.9254 19.5107 61.8964 19.5107C61.8675 19.5107 61.8675 17.4851 61.8964 14.9874C61.9254 11.4642 61.9254 10.4653 61.8385 10.4653C61.5745 10.4653 53.6488 11.9921 53.5619 12.0514C53.504 12.1095 53.4739 12.2863 53.4739 12.5211C53.5029 12.9618 53.445 12.9328 54.4095 13.1374C54.7024 13.1967 55.0533 13.3432 55.1702 13.4316C55.4921 13.6665 55.755 14.1653 55.9599 14.8711C56.1058 15.4293 56.1348 15.8398 56.1938 19.6584C56.2517 23.5642 56.2517 27.5886 56.1359 34.9304L56.0769 37.9851L56.6327 38.1014C57.4513 38.2781 59.8203 38.6897 60.5811 38.7781C61.7216 38.8944 64.3535 38.8653 65.2011 38.7479C68.8566 38.1898 71.6065 36.0758 72.893 32.8153C73.2438 31.9642 73.5657 30.613 73.6827 29.6432C73.8285 28.4979 73.7405 26.1781 73.5368 25.2386C72.776 21.6851 70.5529 19.2177 67.5701 18.6002ZM62.0134 37.0153C61.9254 36.7514 61.8084 27.5874 61.8385 23.9456L61.8675 21.0967L62.3943 20.9502C62.796 20.8511 63.2082 20.8019 63.6217 20.8037C64.2944 20.8037 64.3535 20.8328 64.9093 21.0967C66.2548 21.7723 67.1614 23.4177 67.5991 25.9142C67.7461 26.8537 67.7751 29.3793 67.6292 30.4956C67.2783 33.227 66.4007 35.4293 65.2011 36.4863C64.7333 36.8979 64.2944 37.1328 63.7387 37.2502C63.3299 37.3386 63.213 37.3386 62.4522 37.2793C62.1604 37.2211 62.1014 37.1921 62.0134 37.0153Z" fill="black"/>
</svg>

<svg xmlns="http://www.w3.org/2000/svg" width="110" height="50" fill="none"><path fill="#000" d="M52.746 18.16c-.907 0-1.404.088-2.136.441-1.345.616-2.338 1.614-3.216 3.23l-.293.5.029-.911c.03-.5.058-1.41.088-2.056l.029-1.146h-.205c-.234 0-7.955 1.556-8.189 1.645-.146.058-.175.117-.175.5 0 .381.03.44.175.47.088.029.44.087.79.146.673.117.878.235 1.17.616.526.676.614 1.91.614 7.05 0 4.2-.088 6.313-.292 6.96-.235.793-.673 1.204-1.433 1.35-.234.059-.556.118-.702.148l-.264.058-.029.53c-.029.381 0 .558.088.616.058.029 2.691.058 5.849.058l5.762-.03.03-.615c0-.324 0-.617-.03-.617-.44 0-1.814-.176-2.048-.294-.643-.264-.964-.852-1.111-2.056-.146-1.38-.263-4.875-.205-7.695.059-2.878.059-2.878.235-3.084.409-.44 1.462-.793 2.427-.793.76 0 1.55.206 2.369.587.409.206.76.324.819.324.116-.03 1.989-5.051 1.989-5.286 0-.294-1.083-.647-2.135-.647Z"/><path fill="#000" d="M38.705 26.884c-.409-3.465-1.871-5.99-4.3-7.43-2.69-1.586-6.755-1.675-9.65-.206-2.105 1.058-3.802 3.084-4.563 5.434-.79 2.408-.79 5.58 0 8.017.498 1.586 1.17 2.733 2.224 3.76 1.257 1.262 2.894 2.055 4.796 2.32.671.087 2.808.087 3.508 0 .323-.058.908-.177 1.259-.265 3.421-.998 5.761-3.642 6.551-7.401.204-.94.292-3.172.175-4.23Zm-8.656 10.398c-2.136.645-3.656-1.41-4.242-5.669-.204-1.38-.175-5.14 0-6.697.41-3.436 1.463-5.168 3.13-5.168.76 0 1.17.175 1.754.763 1.405 1.41 2.049 4.111 2.049 8.341 0 3.377-.351 5.492-1.083 6.93-.38.676-1.053 1.323-1.608 1.5Z"/><path fill="#000" d="M10.63 13.08h2.457c2.806 0 3.274.057 4.269.557 1.433.705 2.486 2.115 3.421 4.582.381.999.381.999 1.2.735l.556-.177-.058-3.613c-.03-1.996-.06-3.76-.088-3.906l-.06-.323-10.733-.029c-5.908 0-10.85 0-10.997.03l-.262.057.029.647.03.646.818.089c1.054.116 1.697.44 2.076.968.85 1.234.995 2.937.995 10.955 0 8.546-.176 10.632-.995 11.69-.41.558-.76.734-1.725.91-1.257.235-1.2.206-1.2.852 0 .352.03.558.089.587.145.059 13.862.059 14.009 0 .175-.058.175-1.087 0-1.174-.339-.08-.68-.15-1.024-.206-.497-.088-1.024-.206-1.2-.265-.906-.381-1.403-1.468-1.579-3.436-.145-1.41-.233-4.023-.233-5.933v-1.761l.847.029c1.784.058 2.691.146 3.072.323.819.352 1.461 1.351 1.783 2.76l.176.734.644.03.643.03v-9.4l-.644.031-.643.03-.176.733c-.35 1.44-.935 2.32-1.813 2.732-.35.175-.614.205-1.432.264-.556.03-1.346.058-1.726.058h-.731v-2.32c0-2.32.116-7.283.204-8.046v-.47Zm97.42 16.56c-.644-1.32-1.872-2.201-4.388-3.258-2.046-.853-3.099-1.469-3.714-2.145-.525-.558-.671-1.027-.613-1.85.058-.764.234-1.233.73-1.762.614-.675 1.492-.91 2.515-.675 1.668.351 2.75 1.527 3.686 3.993.322.882.38.912.964.676l.381-.147v-1.028c0-.558-.03-1.732-.058-2.614l-.059-1.586-.293-.116c-1.55-.646-4.474-1.058-6.375-.882-2.165.205-3.772.881-5.002 2.174-1.227 1.263-1.783 2.76-1.666 4.523.088 1.468.498 2.496 1.404 3.435.819.852 1.52 1.263 3.539 2.056 3.216 1.264 4.094 2.027 4.064 3.584 0 1.322-.702 2.29-1.959 2.731-.468.147-1.609.147-2.223 0-1.608-.412-2.837-1.82-3.89-4.406l-.263-.674-.321.028c-.175 0-.41.059-.526.118l-.205.117.029 1.146c0 .616.029 1.938.058 2.907l.059 1.79.35.148c.732.324 2.954.794 4.329.94.176.03 1.111.03 2.106 0 1.696-.03 1.842-.03 2.691-.264 2.544-.674 4.182-2.085 4.913-4.229.234-.674.263-.851.292-1.85-.029-1.351-.145-2.027-.555-2.88ZM88.424 18.955c-2.135-1.086-5.44-.998-7.84.176-2.28 1.117-3.858 2.996-4.735 5.64-.469 1.38-.615 2.466-.556 4.258.03 1.116.087 1.704.204 2.233.907 4.052 3.656 6.783 7.516 7.488.849.148 2.779.148 3.626 0 1.229-.205 2.632-.763 3.539-1.38 1.083-.734 2.194-1.85 2.194-2.203 0-.205-.38-.704-.527-.704-.058 0-.38.146-.671.352-1.054.705-2.078.969-3.51.969-1.96 0-3.189-.5-4.446-1.762-.556-.558-.79-.852-1.054-1.41-.614-1.204-.964-2.613-1.022-4.2l-.03-.675 5.761-.03 5.762-.029.029-.381c0-.206 0-.764-.058-1.263-.35-3.437-1.783-5.846-4.182-7.078v-.001Zm-5.79 7.137-1.463.03v-.323c0-.177.058-.647.117-1.028.498-3.143 1.667-5.023 3.13-5.023 1.344 0 2.164 1.85 2.338 5.258l.058.969-1.344.058c-.76 0-2.047.03-2.837.059ZM67.57 18.6c-.468-.088-.878-.117-1.754-.088-1.346.058-2.252.235-3.277.705-.32.146-.614.293-.643.293-.029 0-.029-2.026 0-4.524.03-3.523.03-4.522-.057-4.522-.264 0-8.19 1.527-8.277 1.586-.058.059-.088.235-.088.47.029.44-.029.412.936.616.292.06.643.206.76.295.322.234.585.733.79 1.44.146.557.175.968.234 4.786.058 3.906.058 7.93-.058 15.272l-.06 3.055.557.116c.818.177 3.187.589 3.948.677 1.14.116 3.772.087 4.62-.03 3.656-.558 6.406-2.672 7.692-5.933.35-.85.673-2.202.79-3.172.145-1.145.057-3.465-.146-4.404-.761-3.554-2.984-6.021-5.967-6.639Zm-5.557 18.414c-.088-.264-.205-9.428-.174-13.07l.029-2.848.526-.147c.402-.099.814-.148 1.228-.146.672 0 .731.029 1.287.293 1.346.675 2.252 2.32 2.69 4.817.147.94.176 3.465.03 4.582-.35 2.731-1.228 4.933-2.428 5.99-.468.412-.907.647-1.462.764-.41.089-.526.089-1.287.03-.292-.059-.35-.088-.439-.265Z"/></svg>
